src/icons/debug-disconnect.svg

<svg width="16" height="16" viewBox="0 0 16 16" fill="none" xmlns="http://www.w3.org/2000/svg">
<path fill-rule="evenodd" clip-rule="evenodd" d="M13.6172 3.84375C13.5169 3.5293 13.3665 3.23991 13.166 2.97559L14.5195 1.61523L13.9043 1L12.5439 2.35352C12.2796 2.15299 11.9902 2.0026 11.6758 1.90234C11.3659 1.79753 11.0446 1.74512 10.7119 1.74512C10.3063 1.74512 9.91439 1.82259 9.53613 1.97754C9.16243 2.13249 8.83203 2.35352 8.54492 2.64062L7 4.19238L11.3271 8.51953L12.8789 6.97461C13.166 6.6875 13.387 6.3571 13.542 5.9834C13.6969 5.60514 13.7744 5.21322 13.7744 4.80762C13.7744 4.47493 13.722 4.15365 13.6172 3.84375ZM12.7285 5.64844C12.6191 5.91276 12.4619 6.14746 12.2568 6.35254L11.3271 7.28223L8.2373 4.19238L9.16699 3.2627C9.37207 3.05762 9.60677 2.90039 9.87109 2.79102C10.14 2.67708 10.4202 2.62012 10.7119 2.62012C11.0127 2.62012 11.2952 2.67936 11.5596 2.79785C11.8239 2.91178 12.054 3.06901 12.25 3.26953C12.4505 3.46549 12.6077 3.69564 12.7217 3.95996C12.8402 4.22428 12.8994 4.50684 12.8994 4.80762C12.8994 5.09928 12.8424 5.37956 12.7285 5.64844ZM7.9043 10.6416L9.3877 9.09668L8.77246 8.47461L7.28223 10.0264L5.42285 8.16699L6.91309 6.61523L6.29102 6L4.80762 7.54492L4.19238 6.92969L2.64062 8.47461C2.35352 8.76172 2.13249 9.0944 1.97754 9.47266C1.82259 9.84635 1.74512 10.236 1.74512 10.6416C1.74512 10.9743 1.79525 11.2979 1.89551 11.6123C2.00033 11.9222 2.15299 12.2093 2.35352 12.4736L1 13.834L1.61523 14.4492L2.97559 13.0957C3.23991 13.2962 3.52702 13.4489 3.83691 13.5537C4.15137 13.654 4.47493 13.7041 4.80762 13.7041C5.21322 13.7041 5.60286 13.6266 5.97656 13.4717C6.35482 13.3167 6.6875 13.0957 6.97461 12.8086L8.51953 11.2568L7.9043 10.6416ZM5.6416 12.665C5.37728 12.7744 5.09928 12.8291 4.80762 12.8291C4.50684 12.8291 4.22201 12.7721 3.95312 12.6582C3.6888 12.5443 3.45638 12.3893 3.25586 12.1934C3.0599 11.9928 2.90495 11.7604 2.79102 11.4961C2.67708 11.2272 2.62012 10.9424 2.62012 10.6416C2.62012 10.3499 2.6748 10.0719 2.78418 9.80762C2.89811 9.53874 3.05762 9.30176 3.2627 9.09668L4.19238 8.16699L7.28223 11.2568L6.35254 12.1865C6.14746 12.3916 5.91048 12.5511 5.6416 12.665Z" fill="#F48771"/>
</svg>

<svg width="16" height="16" xmlns="http://www.w3.org/2000/svg"><path fill-rule="evenodd" clip-rule="evenodd" d="M13.617 3.844a2.87 2.87 0 0 0-.451-.868l1.354-1.36L13.904 1l-1.36 1.354a2.877 2.877 0 0 0-.868-.452 3.073 3.073 0 0 0-2.14.075 3.03 3.03 0 0 0-.991.664L7 4.192l4.327 4.328 1.552-1.545c.287-.287.508-.618.663-.992a3.074 3.074 0 0 0 .075-2.14zm-.889 1.804a2.15 2.15 0 0 1-.471.705l-.93.93-3.09-3.09.93-.93a2.15 2.15 0 0 1 .704-.472 2.134 2.134 0 0 1 1.689.007c.264.114.494.271.69.472.2.195.358.426.472.69a2.134 2.134 0 0 1 .007 1.688zm-4.824 4.994l1.484-1.545-.616-.622-1.49 1.551-1.86-1.859 1.491-1.552L6.291 6 4.808 7.545l-.616-.615-1.551 1.545a3 3 0 0 0-.663.998 3.023 3.023 0 0 0-.233 1.169c0 .332.05.656.15.97.105.31.258.597.459.862L1 13.834l.615.615 1.36-1.353c.265.2.552.353.862.458.314.1.638.15.97.15.406 0 .796-.077 1.17-.232.378-.155.71-.376.998-.663l1.545-1.552-.616-.615zm-2.262 2.023a2.16 2.16 0 0 1-.834.164c-.301 0-.586-.057-.855-.17a2.278 2.278 0 0 1-.697-.466 2.28 2.28 0 0 1-.465-.697 2.167 2.167 0 0 1-.17-.854 2.16 2.16 0 0 1 .642-1.545l.93-.93 3.09 3.09-.93.93a2.22 2.22 0 0 1-.711.478z"/></svg>
